svgs/regular/draw-circle.svg

<svg xmlns="http://www.w3.org/2000/svg" viewBox="0 0 512 512"><!-- Font Awesome Pro 6.0.0-alpha2 by @fontawesome - https://fontawesome.com License - https://fontawesome.com/license (Commercial License) --><path d="M512 256C512 225.75 490.875 200.5 462.625 193.875C441.75 124.75 387.25 70.25 318.125 49.375C311.5 21.125 286.25 0 256 0S200.5 21.125 193.875 49.375C124.75 70.25 70.25 124.75 49.375 193.875C21.125 200.5 0 225.75 0 256S21.125 311.5 49.375 318.125C70.25 387.25 124.75 441.75 193.875 462.625C200.5 490.875 225.75 512 256 512S311.5 490.875 318.125 462.625C387.25 441.75 441.75 387.25 462.625 318.125C490.875 311.5 512 286.25 512 256ZM448 272C439.125 272 432 264.875 432 256C432 247.125 439.125 240 448 240S464 247.125 464 256C464 264.875 456.875 272 448 272ZM256 48C264.875 48 272 55.125 272 64S264.875 80 256 80C247.125 80 240 72.875 240 64S247.125 48 256 48ZM64 240C72.875 240 80 247.125 80 256C80 264.875 72.875 272 64 272S48 264.875 48 256C48 247.125 55.125 240 64 240ZM256 464C247.125 464 240 456.875 240 448S247.125 432 256 432C264.875 432 272 439.125 272 448S264.875 464 256 464ZM309.875 413.75C298.5 395.875 278.75 384 256 384S213.5 395.875 202.125 413.75C153.25 397 115 358.75 98.25 309.875C116.125 298.5 128 278.75 128 256S116.125 213.5 98.25 202.125C115 153.25 153.25 115 202.125 98.25C213.5 116.125 233.25 128 256 128S298.5 116.125 309.875 98.25C358.75 115 397 153.25 413.75 202.125C395.875 213.5 384 233.25 384 256S395.875 298.5 413.75 309.875C397 358.75 358.75 397 309.875 413.75Z"/></svg>

<svg xmlns="http://www.w3.org/2000/svg" viewBox="0 0 512 512"><!--! Font Awesome Pro 6.0.0-alpha3 by @fontawesome - https://fontawesome.com License - https://fontawesome.com/license (Commercial License) --><path d="M512 256c0-30.25-21.12-55.5-49.38-62.12c-20.87-69.13-75.38-123.6-144.5-144.5C311.5 21.12 286.2 0 256 0S200.5 21.12 193.9 49.38C124.8 70.25 70.25 124.8 49.38 193.9C21.12 200.5 0 225.8 0 256s21.12 55.5 49.38 62.13c20.87 69.12 75.38 123.6 144.5 144.5C200.5 490.9 225.8 512 256 512s55.5-21.12 62.13-49.38c69.12-20.87 123.6-75.38 144.5-144.5C490.9 311.5 512 286.2 512 256zM448 272c-8.875 0-16-7.125-16-16c0-8.875 7.125-16 16-16s16 7.125 16 16C464 264.9 456.9 272 448 272zM256 48c8.875 0 16 7.125 16 16S264.9 80 256 80C247.1 80 240 72.88 240 64S247.1 48 256 48zM64 240c8.875 0 16 7.125 16 16c0 8.875-7.125 16-16 16S48 264.9 48 256C48 247.1 55.12 240 64 240zM256 464c-8.875 0-16-7.125-16-16s7.125-16 16-16c8.875 0 16 7.125 16 16S264.9 464 256 464zM309.9 413.8C298.5 395.9 278.8 384 256 384s-42.5 11.88-53.88 29.75C153.2 397 115 358.8 98.25 309.9C116.1 298.5 128 278.8 128 256S116.1 213.5 98.25 202.1C115 153.2 153.2 115 202.1 98.25C213.5 116.1 233.2 128 256 128s42.5-11.88 53.88-29.75c48.88 16.75 87.13 55 103.9 103.9C395.9 213.5 384 233.2 384 256s11.88 42.5 29.75 53.88C397 358.8 358.8 397 309.9 413.8z"/></svg>
